X: 4031
T: PRESTON PANS
R: Reel.
%R: reel
B: James Kerr "Merry Melodies" v.4 p.06 #31
Z: 2016 John Chambers <jc:trillian.mit.edu>
M: C|
L: 1/8
K: A
u(cd) |\
ecBc A2(cA) | FAEA FAEA |\
ecBc A2(cA) | FBBA B2 ::\
(cB) |\
ABcd ecac | ecaf ecBc |\
[1 ABcd ecaf | ecAc B2 :|\
[2 ABAF ECEA | ceBc A2 |]

%%sep 1 1 500
%%sep 1 1 500

